office-plugin/windows-office/share/gallery/bullets/Bullet14-Arrow-Red.svg

<svg enable-background="new 0 0 13.854 13.852" height="13.852" viewBox="0 0 13.854 13.852" width="13.854" xmlns="http://www.w3.org/2000/svg" xmlns:xlink="http://www.w3.org/1999/xlink"><linearGradient id="a" gradientUnits="userSpaceOnUse" x1="-5.2944" x2="13.4418" y1="-2.6597" y2="12.0354"><stop offset="0" stop-color="#ff5f06"/><stop offset=".1061" stop-color="#f95507"/><stop offset="1" stop-color="#cc0212"/></linearGradient><mask id="b" height="12.452" maskUnits="userSpaceOnUse" width="12.453" x=".893" y=".759"><path d="m12.686.515-11.145.098-.691.561s-.264 7.254-.295 10.154c6.361-.131 12.924-9.857 12.924-9.857z" fill="url(#c)" opacity=".75"/></mask><linearGradient id="c" gradientUnits="userSpaceOnUse" x1=".6069" x2="8.1238" y1=".5151" y2="7.2732"><stop offset="0" stop-color="#fff"/><stop offset="1"/></linearGradient><path d="m13.854 12.452c0 .77-.631 1.399-1.4 1.399h-11.054c-.77 0-1.4-.63-1.4-1.399v-11.053c0-.769.631-1.399 1.4-1.399h11.053c.77 0 1.4.63 1.4 1.399v11.053z" fill="url(#a)"/><g fill="#f2f2f2"><path d="m9.465 2.492h1.738v8.736h-1.738z"/><path d="m2.443 2.469h8.736v1.737h-8.736z"/><path d="m5.519 2.661h1.74v9.154h-1.74z" transform="matrix(.7071 .7071 -.7071 .7071 6.9891 -2.3976)"/></g><path d="m13.346 11.952c0 .691-.566 1.259-1.26 1.259h-9.936c-.691 0-1.258-.567-1.258-1.259v-9.935c0-.691.566-1.258 1.258-1.258h9.936c.693 0 1.26.566 1.26 1.258z" fill="#fff" mask="url(#b)" opacity=".8"/></svg>

<?xml version="1.0" encoding="utf-8"?>
<!-- Generator: Adobe Illustrator 12.0.1, SVG Export Plug-In . SVG Version: 6.00 Build 51448)  -->
<!DOCTYPE svg PUBLIC "-//W3C//DTD SVG 1.1//EN" "http://www.w3.org/Graphics/SVG/1.1/DTD/svg11.dtd" [
	<!ENTITY ns_svg "http://www.w3.org/2000/svg">
	<!ENTITY ns_xlink "http://www.w3.org/1999/xlink">
]>
<svg  version="1.1" id="图层_1" xmlns="&ns_svg;" xmlns:xlink="&ns_xlink;" width="13.854" height="13.852"
	 viewBox="0 0 13.854 13.852" overflow="visible" enable-background="new 0 0 13.854 13.852" xml:space="preserve">
<g>
	<linearGradient id="XMLID_4_" gradientUnits="userSpaceOnUse" x1="-5.2944" y1="-2.6597" x2="13.4418" y2="12.0354">
		<stop  offset="0" style="stop-color:#FF5F06"/>
		<stop  offset="0.1061" style="stop-color:#F95507"/>
		<stop  offset="1" style="stop-color:#CC0212"/>
	</linearGradient>
	<path fill="url(#XMLID_4_)" d="M13.854,12.452c0,0.77-0.631,1.399-1.4,1.399H1.4c-0.77,0-1.4-0.63-1.4-1.399V1.399
		C0,0.63,0.631,0,1.4,0h11.053c0.77,0,1.4,0.63,1.4,1.399V12.452z"/>
	<g>
		<rect x="9.465" y="2.492" fill="#F2F2F2" width="1.738" height="8.736"/>
		<rect x="2.443" y="2.469" fill="#F2F2F2" width="8.736" height="1.737"/>
		
			<rect x="5.519" y="2.661" transform="matrix(0.7071 0.7071 -0.7071 0.7071 6.9891 -2.3976)" fill="#F2F2F2" width="1.74" height="9.154"/>
	</g>
	<defs>
		<filter id="Adobe_OpacityMaskFilter" filterUnits="userSpaceOnUse" x="0.893" y="0.759" width="12.453" height="12.452">
			<feColorMatrix  type="matrix" values="1 0 0 0 0  0 1 0 0 0  0 0 1 0 0  0 0 0 1 0"/>
		</filter>
	</defs>
	<mask maskUnits="userSpaceOnUse" x="0.893" y="0.759" width="12.453" height="12.452" id="XMLID_5_">
		<g filter="url(#Adobe_OpacityMaskFilter)">
			<linearGradient id="XMLID_6_" gradientUnits="userSpaceOnUse" x1="0.6069" y1="0.5151" x2="8.1238" y2="7.2732">
				<stop  offset="0" style="stop-color:#FFFFFF"/>
				<stop  offset="1" style="stop-color:#000000"/>
			</linearGradient>
			<path opacity="0.75" fill="url(#XMLID_6_)" d="M12.686,0.515L1.541,0.613L0.85,1.174c0,0-0.264,7.254-0.295,10.154
				c6.361-0.131,12.924-9.857,12.924-9.857L12.686,0.515z"/>
		</g>
	</mask>
	<path opacity="0.8" mask="url(#XMLID_5_)" fill="#FFFFFF" d="M13.346,11.952c0,0.691-0.566,1.259-1.26,1.259H2.15
		c-0.691,0-1.258-0.567-1.258-1.259V2.017c0-0.691,0.566-1.258,1.258-1.258h9.936c0.693,0,1.26,0.566,1.26,1.258V11.952z"/>
</g>
</svg>
